X:114
T:For the Sake of Old Decency
Z: id:dc-reel-106
M:C
L:1/8
K:G Major
e|d2BG AGEG|DGBG A3B|d2BG AGAB|dBAG EGG:|!
D|G3B d2Bd|eaag egg2|G3B d2Bd|egga bgg2|!
G3B d2Bd|eaag egga|bgg2 efge|dega bag|]!

